svgs/regular/font.svg

<svg xmlns="http://www.w3.org/2000/svg" viewBox="0 0 448 512"><!-- Font Awesome Pro 6.0.0-alpha2 by @fontawesome - https://fontawesome.com License - https://fontawesome.com/license (Commercial License) --><path d="M424 432H392.559L246.438 47.469C242.938 38.219 234.094 32.094 224.219 32C224.125 32 224.062 32 224 32C214.188 32 205.375 37.969 201.719 47.094L47.756 432H24C10.75 432 0 442.75 0 456S10.75 480 24 480H136C149.25 480 160 469.25 160 456S149.25 432 136 432H99.445L134.65 344H307.766L341.201 432H312C298.75 432 288 442.75 288 456S298.75 480 312 480H424C437.25 480 448 469.25 448 456S437.25 432 424 432ZM153.854 296L223.438 122.062L289.527 296H153.854Z"/></svg>

<svg xmlns="http://www.w3.org/2000/svg" viewBox="0 0 448 512"><!--! Font Awesome Pro 6.0.0-alpha3 by @fontawesome - https://fontawesome.com License - https://fontawesome.com/license (Commercial License) --><path d="M424 432h-31.44L246.4 47.47c-3.5-9.25-12.51-15.37-22.38-15.46c-.0938 0 .0625 0 0 0c-9.812 0-18.68 5.961-22.34 15.09L47.76 432H24C10.75 432 0 442.8 0 456S10.75 480 24 480h112C149.3 480 160 469.3 160 456S149.3 432 136 432H99.45l35.21-88h173.1l33.44 88H312c-13.25 0-24 10.75-24 24S298.8 480 312 480h112c13.25 0 24-10.75 24-24S437.3 432 424 432zM153.9 296l69.58-173.9L289.5 296H153.9z"/></svg>
